images/ic_faq.svg

<svg width="18" height="18" viewBox="0 0 18 18" fill="none" xmlns="http://www.w3.org/2000/svg">
<g clip-path="url(#clip0)">
<path d="M18 9C18 10.7765 17.4727 12.5042 16.4751 13.9963C16.2594 14.3192 15.8226 14.4058 15.4998 14.1901C15.1769 13.9742 15.0903 13.5375 15.306 13.2148C16.1485 11.9546 16.5938 10.4973 16.5938 9C16.5938 4.81284 13.1872 1.40625 9 1.40625C4.81284 1.40625 1.40625 4.81284 1.40625 9C1.40625 13.1872 4.81284 16.5938 9 16.5938C10.3888 16.5938 11.7473 16.2155 12.9283 15.5002C13.2604 15.299 13.6928 15.4052 13.894 15.7374C14.0952 16.0694 13.989 16.5017 13.6568 16.7029C12.2561 17.5515 10.6458 18 9 18C6.59605 18 4.33589 17.0638 2.63603 15.364C0.936172 13.6641 0 11.4039 0 9C0 6.59605 0.936172 4.33589 2.63603 2.63603C4.33589 0.936172 6.59605 0 9 0C11.4039 0 13.6641 0.936172 15.364 2.63603C17.0638 4.33589 18 6.59605 18 9ZM9.00027 13.3594C8.61191 13.3594 8.29715 13.6741 8.29715 14.0625C8.29715 14.4509 8.61191 14.7656 9.00027 14.7656C9.3885 14.7656 9.7034 14.4509 9.7034 14.0625C9.7034 13.6741 9.3885 13.3594 9.00027 13.3594ZM10.4764 10.3873C11.8654 9.79431 12.7627 8.43544 12.7623 6.92523C12.7623 6.91342 12.762 6.90161 12.7614 6.8898C12.7422 4.8322 11.0623 3.16406 9.00027 3.16406C6.92619 3.16406 5.23883 4.85143 5.23883 6.92537C5.23883 7.31374 5.55359 7.62849 5.94196 7.62849C6.33032 7.62849 6.64508 7.31374 6.64508 6.92537C6.64508 5.62679 7.70155 4.57031 9.00027 4.57031C10.2989 4.57031 11.3553 5.62679 11.3553 6.92537C11.3553 6.93498 11.3555 6.94432 11.3559 6.9538C11.345 7.88832 10.7856 8.7263 9.92422 9.09407C8.95097 9.50949 8.29715 10.5172 8.29715 11.6016C8.29715 11.9899 8.61191 12.3047 9.00027 12.3047C9.3885 12.3047 9.7034 11.9899 9.7034 11.6016C9.7034 11.0727 10.014 10.5848 10.4764 10.3873Z" fill="#979797"/>
</g>
<defs>
<clipPath id="clip0">
<rect width="18" height="18" fill="white"/>
</clipPath>
</defs>
</svg>

<svg xmlns="http://www.w3.org/2000/svg" fill="none" viewBox="0 0 18 18"><g clip-path="url(#A)"><path d="M18 9a8.96 8.96 0 0 1-1.525 4.996c-.216.323-.653.4-.975.194s-.4-.653-.194-.975c.842-1.26 1.288-2.718 1.288-4.215 0-4.187-3.407-7.594-7.594-7.594S1.406 4.813 1.406 9 4.813 16.594 9 16.594a7.58 7.58 0 0 0 3.928-1.094c.332-.2.765-.095.966.237s.095.764-.237.966A8.98 8.98 0 0 1 9 18a8.94 8.94 0 0 1-6.364-2.636A8.94 8.94 0 0 1 0 9a8.94 8.94 0 0 1 2.636-6.364A8.94 8.94 0 0 1 9 0a8.94 8.94 0 0 1 6.364 2.636A8.94 8.94 0 0 1 18 9zm-9 4.36c-.388 0-.703.315-.703.703s.315.703.703.703.703-.315.703-.703A.7.7 0 0 0 9 13.36zm1.476-2.972a3.76 3.76 0 0 0 2.286-3.462.7.7 0 0 0-.001-.035 3.77 3.77 0 0 0-3.76-3.726c-2.074 0-3.76 1.687-3.76 3.76 0 .388.315.703.703.703s.703-.315.703-.703A2.36 2.36 0 0 1 9 4.57a2.36 2.36 0 0 1 2.355 2.355.67.67 0 0 0 .001.028 2.35 2.35 0 0 1-1.432 2.14c-.973.415-1.627 1.423-1.627 2.508 0 .388.315.703.703.703s.703-.315.703-.703c0-.53.3-1.017.773-1.214z" fill="#979797"/></g><defs><clipPath id="A"><path d="M0 0h18v18H0z" fill="#fff"/></clipPath></defs></svg>
